X: 27727
T: Morning Lark, The
R: jig
M: 6/8
K: Dmajor
AFD D3|DEF Ad=c|BGG DGG|BGG BdB|
AFD D3|DEF A2B|def gfe|fdc dcB:|
|:Add fdd|add fdd|Add fdd|edB BAB|
Add fdd|add fed|~f3 ede|1 fdc dcB:|2 fdc d3||

